images/breadcrumbs-arrow.svg

<svg width="6" height="8" viewBox="0 0 6 8" fill="none" xmlns="http://www.w3.org/2000/svg">
<g clip-path="url(#clip0_25754_200)">
<path d="M5.79998 3.6L1.99998 0.200003C1.79998 3.05474e-06 1.39998 3.05474e-06 1.09998 0.200003C0.799984 0.400003 0.899984 0.800003 1.09998 1L4.39998 4L1.19998 7C0.999984 7.2 0.999984 7.6 1.19998 7.8C1.19998 7.9 1.49998 8 1.59998 8C1.69998 8 1.89998 7.9 1.99998 7.8L5.79998 4.4C6.09998 4.2 6.09998 3.8 5.79998 3.6V3.6Z" fill="white"/>
</g>
<defs>
<clipPath id="clip0_25754_200">
<rect width="6" height="8" fill="white"/>
</clipPath>
</defs>
</svg>

<svg width="6" height="8" fill="none" xmlns="http://www.w3.org/2000/svg"><g opacity=".3" clip-path="url(#a)"><path d="M5.8 3.6 2 .2c-.2-.2-.6-.2-.9 0-.3.2-.2.6 0 .8l3.3 3-3.2 3c-.2.2-.2.6 0 .8 0 .1.3.2.4.2.1 0 .3-.1.4-.2l3.8-3.4c.3-.2.3-.6 0-.8Z" fill="#fff"/></g><defs><clipPath id="a"><path fill="#fff" d="M0 0h6v8H0z"/></clipPath></defs></svg>
